public/images/renaissance/logo-circle-dark.svg

<svg width="113" height="112" viewBox="0 0 113 112" fill="none" xmlns="http://www.w3.org/2000/svg">
<rect x="0.5" width="112" height="112" rx="56" fill="white"/>
<path d="M26.0498 38.4508H37.4845C44.8441 38.4508 49.4819 42.5517 49.4819 48.8715C49.4819 54.013 46.4864 57.6472 41.5141 58.8714L50.2802 71.4649H46.015L37.4389 59.2998H29.6156V71.4649H26.0498V38.4508ZM38.0015 55.9487C42.6849 55.9487 45.9238 53.684 45.9238 48.8715C45.9238 44.2962 42.7838 41.8402 38.0015 41.8402H29.6156V55.941H38.0015V55.9487Z" fill="#182026"/>
<path d="M57.5283 38.4508H81.7587V44.9082H64.5078V51.4193H80.9604V57.7849H64.5078V64.9998H81.7587V71.4649H57.5283V38.4508Z" fill="#182026"/>
<path d="M95.498 15.5277C76.7873 -2.27619 51.8347 -3.75284 32.3181 5.941C13.5541 14.7014 0.5 33.8366 0.5 55.9863C0.5 77.8682 13.2272 96.8121 31.6262 105.71C51.2492 115.794 76.5821 114.478 95.5057 96.4525C118.177 75.0756 118.155 36.9047 95.498 15.5277ZM2.19544 55.9863C2.19544 37.4632 11.6154 21.113 25.8784 11.5262C39.9666 2.60515 58.1679 0.256296 75.0615 7.97617C116.018 26.8665 116.003 85.0908 75.0539 103.973C58.0614 111.747 39.7385 109.329 25.6123 100.27C11.4938 90.6607 2.19544 74.3946 2.19544 55.9863Z" fill="#182026"/>
</svg>

<svg fill="none" viewBox="0 0 113 112"><rect width="112" height="112" x=".5" fill="#fff" rx="56"/><path fill="#182026" d="M26.05 38.45h11.434c7.36 0 11.998 4.102 11.998 10.421 0 5.142-2.996 8.776-7.968 10l8.766 12.594h-4.265L37.439 59.3h-7.823v12.165H26.05V38.45zM38 55.95c4.684 0 7.923-2.265 7.923-7.078 0-4.575-3.14-7.03-7.922-7.03h-8.386v14.1h8.386v.008zm19.529-17.5h24.23v6.457h-17.25v6.511H80.96v6.366H64.508V65h17.25v6.465h-24.23V38.45z"/><path fill="#182026" d="M95.498 15.528C76.788-2.276 51.835-3.752 32.318 5.94 13.554 14.701.5 33.837.5 55.986c0 21.882 12.727 40.826 31.126 49.724 19.623 10.084 44.956 8.768 63.88-9.257 22.671-21.377 22.649-59.548-.008-80.925zM2.195 55.986c0-18.523 9.42-34.873 23.683-44.46 14.089-8.92 32.29-11.27 49.183-3.55 40.957 18.89 40.942 77.115-.007 95.997-16.993 7.774-35.316 5.356-49.442-3.703C11.494 90.66 2.195 74.395 2.195 55.986z"/></svg>
